packages/ffe-icons/icons/open/300/md/auto_awesome_mosaic.svg

<svg xmlns="http://www.w3.org/2000/svg" height="24" viewBox="0 -960 960 960" width="24"><path d="M440-140.001H212.309q-30.308 0-51.308-21t-21-51.308v-535.382q0-30.308 21-51.308t51.308-21H440v679.998ZM380.001-200v-560H212.309q-5.385 0-8.847 3.462-3.462 3.462-3.462 8.847v535.382q0 5.385 3.462 8.847 3.462 3.462 8.847 3.462h167.692ZM520-520v-299.999h227.691q30.308 0 51.308 21t21 51.308V-520H520Zm59.999-59.999H760v-167.692q0-5.385-3.462-8.847-3.462-3.462-8.847-3.462H579.999v180.001ZM520-140.001V-440h299.999v227.691q0 30.308-21 51.308t-51.308 21H520ZM579.999-200h167.692q5.385 0 8.847-3.462 3.462-3.462 3.462-8.847v-167.692H579.999V-200ZM380.001-480Zm199.998-99.999Zm0 199.998Z"/></svg>

<svg xmlns="http://www.w3.org/2000/svg" height="24" viewBox="0 -960 960 960" width="24"><path d="M440-140H212.31Q182-140 161-161q-21-21-21-51.31v-535.38Q140-778 161-799q21-21 51.31-21H440v680Zm-60-60v-560H212.31q-5.39 0-8.85 3.46t-3.46 8.85v535.38q0 5.39 3.46 8.85t8.85 3.46H380Zm140-320v-300h227.69Q778-820 799-799q21 21 21 51.31V-520H520Zm60-60h180v-167.69q0-5.39-3.46-8.85t-8.85-3.46H580v180Zm-60 440v-300h300v227.69Q820-182 799-161q-21 21-51.31 21H520Zm60-60h167.69q5.39 0 8.85-3.46t3.46-8.85V-380H580v180ZM380-480Zm200-100Zm0 200Z"/></svg>
